icons/communication/comment-arrow-right-24.svg

<svg width="24" height="24" viewBox="0 0 24 24" fill="none" xmlns="http://www.w3.org/2000/svg">
<path fill-rule="evenodd" clip-rule="evenodd" d="M1 3.75C1 2.7835 1.7835 2 2.75 2H21.25C22.2165 2 23 2.7835 23 3.75V16.25C23 17.2165 22.2165 18 21.25 18H11.1406C11.0778 18 11.0173 18.0236 10.9712 18.0662L7.09724 21.6374C6.29633 22.3757 5 21.8076 5 20.7183V18H2.75C1.7835 18 1 17.2165 1 16.25V3.75ZM2.75 3.5C2.61193 3.5 2.5 3.61193 2.5 3.75V16.25C2.5 16.3881 2.61193 16.5 2.75 16.5H5.5C6.05228 16.5 6.5 16.9477 6.5 17.5V20.1478L9.95446 16.9633C10.2776 16.6654 10.7011 16.5 11.1406 16.5H21.25C21.3881 16.5 21.5 16.3881 21.5 16.25V3.75C21.5 3.61193 21.3881 3.5 21.25 3.5H2.75Z" fill="black"/>
<path d="M11.7224 13.1389L13.8573 10.7947H8.24739C8.04917 10.7947 7.85907 10.7115 7.7189 10.5634C7.57874 10.4154 7.5 10.2146 7.5 10.0052C7.5 9.7958 7.57874 9.595 7.7189 9.44694C7.85907 9.29889 8.04917 9.21571 8.24739 9.21571H13.8573L11.7224 6.8715C11.6496 6.80102 11.5907 6.716 11.5492 6.62135C11.5077 6.5267 11.4843 6.4243 11.4805 6.32007C11.4767 6.21583 11.4924 6.11183 11.5269 6.01407C11.5613 5.9163 11.6138 5.82672 11.6812 5.7505C11.7486 5.67428 11.8297 5.61293 11.9197 5.56999C12.0097 5.52705 12.1068 5.50337 12.2056 5.50034C12.3043 5.4973 12.4026 5.51495 12.4948 5.55228C12.587 5.58961 12.6713 5.64587 12.7428 5.71781L16.2629 9.42834C16.3377 9.5022 16.3974 9.59152 16.4382 9.69074C16.479 9.78997 16.5 9.897 16.5 10.0052C16.5 10.1134 16.479 10.2204 16.4382 10.3196C16.3974 10.4188 16.3377 10.5082 16.2629 10.582L12.7428 14.2926C12.5976 14.4331 12.4057 14.5075 12.2089 14.4994C12.0121 14.4913 11.8262 14.4015 11.6917 14.2495C11.5572 14.0975 11.485 13.8955 11.4908 13.6875C11.4965 13.4795 11.5797 13.2824 11.7224 13.1389Z" fill="black"/>
</svg>

<svg xmlns="http://www.w3.org/2000/svg" width="24" height="24"><path fill-rule="evenodd" d="M1 3.75C1 2.784 1.784 2 2.75 2h18.5c.966 0 1.75.784 1.75 1.75v12.5A1.75 1.75 0 0121.25 18H11.14a.25.25 0 00-.169.066l-3.874 3.571c-.8.739-2.097.17-2.097-.919V18H2.75A1.75 1.75 0 011 16.25V3.75zm1.75-.25a.25.25 0 00-.25.25v12.5c0 .138.112.25.25.25H5.5a1 1 0 011 1v2.648l3.454-3.185a1.75 1.75 0 011.187-.463H21.25a.25.25 0 00.25-.25V3.75a.25.25 0 00-.25-.25H2.75z"/><path d="M11.722 13.139l2.135-2.344h-5.61a.728.728 0 01-.528-.232.812.812 0 01-.219-.558c0-.21.079-.41.219-.558a.728.728 0 01.528-.231h5.61l-2.135-2.344a.826.826 0 01-.041-1.121.75.75 0 01.239-.181.714.714 0 01.823.148l3.52 3.71a.792.792 0 01.175.263.828.828 0 01-.175.891l-3.52 3.71a.725.725 0 01-.534.207.731.731 0 01-.517-.25.815.815 0 01-.201-.562.81.81 0 01.231-.548z"/></svg>
